X:113
T:Midnight Sun
C:Lionel Hampton, Sonny Burke and Johnny Mercer
N:TablEdited by Larry Klose
L:1/8
Q:1/4=120
M:4/4
K:C
B2 |: "CM7"d3/2_d/ c3/2B/ _B3/2A/ _A2 | GE3 G3/2_G/ F3/2E/ | "Cm7"_E2 dB "F9"z4 | 
"Cm7"z4 "F9"z2 A2 | "BbM7"c3/2B/ _B3/2A/ _A3/2G/ _G3/2D/ | FD3 F3/2E/ _E3/2D/ | 
"Bbm7"_D2 cA "Eb9"z4 | z4 z2 G2 | "AbM7"_B3/2A/ _A3/2G/ _G3/2F/ E3/2C/ | _EC3 E3/2D/ _D3/2C/ | 
"Abm7"B,2 _B3/2G/ "Db9"z4 | z4 _B3/2G/ E3/2F/ | "CM7"GG2G z4 | "Dm7"z4 "G7b9"z2 B2 | 
"CM7"d3/2_d/ c3/2B/ _B3/2A/ _A3/2E/ | GE3 G3/2_G/ F3/2E/ | "Cm7"_E2 dB "F9"z4 | 
"Cm7"z4 "F9"z2 A2 | "BbM7"c3/2B/ _B3/2A/ _A3/2G/ _G3/2D/ | FD3 F3/2E/ _E3/2D/ | 
"Bbm7"_D2 cA "Eb9"z4 | z4 z2 G2 | "AbM7"_B3/2A/ _A3/2G/ _G3/2F/ E3/2C/ | _EC3 E3/2D/ _D3/2C/ | 
"Abm7"B,2 _BG "Db9"z4 | z4 _B3/2G/ E3/2F/ | "CM7"GG3 G"Am7"z3 | "F#m7"z8 | "EM7"B3/2^c/ ^G3/2A/ "E6"B2 G3/2A/ | 
"Em7"B3/2^c/ G3/2A/ "A7"B2 c2 | "DM7"A8 | "DM7"z4 "D6"z2 ^F2 | "DM7"A3/2B/ ^F3/2G/ "DM6"A2 F3/2G/ | 
"Dm7"A3/2B/ F3/2G/ "G9"A2 "G7#5"BG | "Em7"z8 | "Dm7"z4 "Db7#9"z2 B2 | "CM7"d3/2_d/ c3/2B/ _B3/2A/ _A3/2E/ | 
GE3 G3/2_G/ F3/2E/ | "Cm7"_E2 dB "F9"z4 | "Cm7"z4 "F9"z2 A2 | "BbM7"c3/2B/ _B3/2A/ _A3/2G/ _G3/2D/ | 
FD3 F3/2E/ _E3/2D/ | "Bbm7"_D2 cA "Eb9"z4 | z4 z2 G2 | "AbM7"_B3/2A/ _A3/2G/ _G3/2F/ E3/2C/ | 
_EC3 E3/2D/ _D3/2C/ | "Abm7"B,2 _B3/2G4z/ | z4 _B3/2G/ E3/2F/ |1 "C"GG2G "Am7"z4 | 
"Dm7"z4 "G7b9"z2 B2 :|2 "C"GG2G "Db9"z4 | "C9"z6 z2 | 


